X: 6
T:Valzer
T:John Malchair’s Third Collection of Tunes
%%VWML:Malchair-3619-p6
F:https://www.vwml.org/record/Malchair/3619/p6
F:www.vwml.org/topics/historic-dance-and-tune-books/Malchair
Z:Ian Hayden Jan 2020
M:3/8
L:1/8
K:Bb
B2 b|!wedge!B(d/B/)(d/B/)|A2 f|A(c/A/)(c/A/)|BFG|!wedge!F(ED)|G e/c/A/c/|{c}B3:|
|:(dec)|(BAB)|G/^F/G/B/A/c/|B2!wedge!e|(dB)!wedge!a|bdB|G e/c/A/c/|{c}B3:|
|:f2 b|d2 f|ecA|B/A/B/c/d/e/|f2 b|d2 f|ecA|B3:|
|:c2 c|!wedge!c(de)|!wedge!d(ef)|fed|c2 c|cde|d/e/f/e/d/c/|B3:|
W:
T:Valtzer
T:John Malchair’s Third Collection of Tunes
F:https://www.vwml.org/record/Malchair/3619/p6
F:www.vwml.org/topics/historic-dance-and-tune-books/Malchair
M:3/8
L:1/8
K:G
D/B/B/D/c/D/|D/d/d/D/c/D/|D/B/B/D/c/D/|D/d/d/D/c/D/|\
D/B/B/D/c/D/|D/d/d/D/c/D/|D/B/B/D/c/D/|d2 z:|
|:c/A/e/c/B/A/|B/G/d/B/A/G/|A/D/c/A/G/F/|G/A/B/c/d/B/|\
c/A/e/c/B/A/|B/d/e/f/g/d/|e/c/B/A/G/F/|G2 z:|
T:Three Sheep Skins
T:John Malchair’s Third Collection of Tunes
F:https://www.vwml.org/record/Malchair/3619/p6
M:C|
L:1/8
K:G
G4 B3c|d4 B4|c4 A4|d4 A4|]
B2 G2 G2 B2|A2 G2 G2 B2|A2 G2 F2 E2|F4 D4|]
